**kern	**kern	**dynam
*part1	*part1	*part1
*staff2	*staff1	*
*I"Piano	*	*
*clefF4	*clefG2	*
*k[b-e-a-]	*k[b-e-a-]	*
*M2/4	*M2/4	*
=1	=1	=1
!	!	!LO:DY:a
4C 4E-	8r	p
.	(8G	.
8r	4G^) 4e-	.
8C' 8E-	.	.
=	=	=
4C 4En	8r	.
.	(8G	.
8r	4G^) 4B- 4c	.
8C' 8E	.	.
=	=	=
4C 4F	8r	.
.	(8An	.
8r	4A^) 4c 4f	.
8C' 8F	.	.
=	=	=
4C 4F	8r	.
.	(8A-X	.
8r	4A-) 4c	.
8C' 8F	.	.
=	=	=
4C 4En	8r	.
.	(8G	.
!	!LO:TX:b:i:t=dim.	!
8r	4G) 4c 4g	.
8C' 8E-X	.	.
=	=	=
4.GG; 4.D	8r	.
.	(8GL	.
.	8G;J) 8Bn 8g	.
8r	8r	.
=	=	=
4C 4E-	8r	.
.	(8c	.
8r	4c) 4cc	.
8C 8En	.	.
=	=	=
4C 4F	8r	.
.	(8c	.
8r	4c) 4cc	.
8C 8F	.	.
=	=	=
4C 4F	8r	.
.	(8G	.
8r	4G) 4g	.
8C 8F	.	.
=	=	=
4C 4E-	8r	.
.	(8G	.
8r	4G) 4g	.
8C 8E-	.	.
=	=	=
*-	*-	*-
!!!system-decoration: {(s1,s2)}
